X:1
T:Bach Cello Suite No.2 in D Minor Courante
T:For Classical Guitar
%%score 1 2
L:1/8
M:1/16
K:F
V:1 treble-8 nm="Violão" snm="Viol."
V:2 tab stafflines=6 strings=E2,A2,D3,G3,B3,E4 nm="Violão" snm="Viol."
V:1
 d/ |[M:3/4] d/A/F/A/ D/F/G/A/ B/A/B/G/ | ^C2- C/D/E/F/ G/F/G/E/ | F/D/E/C/ B,/A,/B,/A/ G/F/E/D/ | %4
 ^C/E/A,/=B,/ C/D/E/F/ G/B/A/E/ | F/A/D/E/ F/G/A/B/ c/B/d/c/ | [A,Fc]2- [A,Fc]/B/A/G/ F/_E/D/E/ | %7
 D/B,/A,/B,/ D/B,/E/B,/ F/B,/F/B,/ | E,/G,/C/D/ E/F/G/A/ B/A/B/G/ | A/F/E/F/ A/F/B/F/ c/F/d/F/ | %10
 ^C/E/A/=B/ ^c/d/e/f/ g/f/g/e/ | D/A/f/e/ d/c/d/c/ =B/A/B/A/ | B/A/=B/E/ F/E/F/D/ E/C/D/=B,/ | %13
 C/A/=B/c/ B/A/^G/A/ D/A/E/A/ | ^D/A/=B/c/ B/A/^G/A/ E/A/E/G/ | A/E/^C/E/ A,/C/E/^G/ A2 :: %16
[M:1/16] e/ |[M:3/4] e/^c/A/c/ E/F/G/A/ B/G/c/G/ | [Fd-]2 d/A/d/e/ f/d/A/c/ | %19
 =B/F/D/F/ G,/D/F/G/ B/F/d/F/ | E/G/C/D/ E/F/G/A/ B/d/c/G/ | A/c/B/A/ G/F/_E/D/ E/c/F/E/ | %22
 [B,D-]2 D/E/F/G/ A/B/c/d/ | E/B,/A,/G,/ A,/F/G,/F,/ E,/G,/F/E/ | F/A/B/A/ G/F/E/F/ G/E/F/D/ | %25
 ^C/G/=B,/G/ A,/G/B,/G/ C/G/A,/G/ | F/D/F/A/ d/A/d/e/ f/B/F/D/ | G,/D/G/A/ B/g/A/f/ G/e/F/d/ | %28
 ^c/d/e/c/ A/c/B/c/ A/c/G/c/ | F/d/e/f/ e/d/^c/d/ G/d/A/d/ | B/d/e/f/ e/d/^c/d/ B/d/A/d/ | %31
 ^G/d/e/f/ e/d/^c/d/ A/d/A/c/ | e/=B/G/B/ E/G/=B,/E/ E,2 :| %33
V:2
 !2!D/ |[M:3/4] !2!D/!3!A,/!4!F,/!3!A,/ !4!D,/!4!F,/!3!G,/!3!A,/ !3!B,/!3!A,/!3!B,/!3!G,/ | %2
 !5!^C,2- !5!C,/!4!D,/!4!E,/!4!F,/ !3!G,/!4!F,/!3!G,/!4!E,/ | %3
 !4!F,/!4!D,/!4!E,/!5!C,/ !5!B,,/!5!A,,/!5!B,,/!3!A,/ !3!G,/!4!F,/!4!E,/!4!D,/ | %4
 !5!^C,/!4!E,/!5!A,,/!5!=B,,/ !5!C,/!4!D,/!4!E,/!4!F,/ !3!G,/!3!B,/!3!A,/!4!E,/ | %5
 !4!F,/!3!A,/!4!D,/!4!E,/ !4!F,/!3!G,/!3!A,/!3!B,/ !2!C/!3!B,/!2!D/!2!C/ | %6
 [!5!A,,!4!F,!2!C]2- [!5!A,,!4!F,!2!C]/!3!B,/!3!A,/!3!G,/ !4!F,/!4!_E,/!4!D,/!4!E,/ | %7
 !4!D,/!5!B,,/!5!A,,/!5!B,,/ !4!D,/!5!B,,/!4!E,/!5!B,,/ !4!F,/!5!B,,/!4!F,/!5!B,,/ | %8
 !6!E,,/!6!G,,/!5!C,/!4!D,/ !4!E,/!4!F,/!3!G,/!3!A,/ !3!B,/!3!A,/!3!B,/!3!G,/ | %9
 !3!A,/!4!F,/!4!E,/!4!F,/ !3!A,/!4!F,/!3!B,/!4!F,/ !2!C/!4!F,/!2!D/!4!F,/ | %10
 !5!^C,/!4!E,/!3!A,/!2!=B,/ !2!^C/!2!D/!1!E/!1!F/ !1!G/!1!F/!1!G/!1!E/ | %11
 !4!D,/!3!A,/!1!F/!1!E/ !2!D/!2!C/!2!D/!2!C/ !2!=B,/!3!A,/!2!B,/!3!A,/ | %12
 !3!B,/!3!A,/!2!=B,/!4!E,/ !4!F,/!4!E,/!4!F,/!4!D,/ !4!E,/!5!C,/!4!D,/!5!=B,,/ | %13
 !5!C,/!3!A,/!2!=B,/!2!C/ !2!B,/!3!A,/!3!^G,/!3!A,/ !4!D,/!3!A,/!4!E,/!3!A,/ | %14
 !4!^D,/!3!A,/!2!=B,/!2!C/ !2!B,/!3!A,/!3!^G,/!3!A,/ !4!E,/!3!A,/!4!E,/!3!G,/ | %15
 !3!A,/!4!E,/!5!^C,/!4!E,/ !5!A,,/!5!C,/!4!E,/!3!^G,/ !3!A,2 ::[M:1/16] !1!E/ | %17
[M:3/4] !1!E/!2!^C/!3!A,/!2!C/ !4!E,/!4!F,/!3!G,/!3!A,/ !3!B,/!3!G,/!2!C/!3!G,/ | %18
 [!4!F,!2!D-]2 !2!D/!3!A,/!2!D/!1!E/ !1!F/!2!D/!3!A,/!2!C/ | %19
 !2!=B,/!4!F,/!4!D,/!4!F,/ !6!G,,/!4!D,/!4!F,/!3!G,/ !2!B,/!4!F,/!2!D/!4!F,/ | %20
 !4!E,/!3!G,/!5!C,/!4!D,/ !4!E,/!4!F,/!3!G,/!3!A,/ !3!B,/!2!D/!2!C/!3!G,/ | %21
 !3!A,/!2!C/!3!B,/!3!A,/ !3!G,/!4!F,/!4!_E,/!4!D,/ !4!E,/!2!C/!4!F,/!4!E,/ | %22
 [!5!B,,!4!D,-]2 !4!D,/!4!E,/!4!F,/!3!G,/ !3!A,/!3!B,/!2!C/!2!D/ | %23
 !4!E,/!5!B,,/!5!A,,/!6!G,,/ !5!A,,/!4!F,/!6!G,,/!6!F,,/ !6!E,,/!6!G,,/!4!F,/!4!E,/ | %24
 !4!F,/!3!A,/!3!B,/!3!A,/ !3!G,/!4!F,/!4!E,/!4!F,/ !3!G,/!4!E,/!4!F,/!4!D,/ | %25
 !5!^C,/!3!G,/!5!=B,,/!3!G,/ !5!A,,/!3!G,/!5!B,,/!3!G,/ !5!C,/!3!G,/!5!A,,/!3!G,/ | %26
 !4!F,/!4!D,/!4!F,/!3!A,/ !2!D/!3!A,/!2!D/!1!E/ !1!F/!3!B,/!4!F,/!4!D,/ | %27
 !6!G,,/!4!D,/!3!G,/!3!A,/ !3!B,/!1!G/!3!A,/!1!F/ !3!G,/!1!E/!4!F,/!2!D/ | %28
 !2!^C/!2!D/!1!E/!2!C/ !3!A,/!2!C/!3!B,/!2!C/ !3!A,/!2!C/!3!G,/!2!C/ | %29
 !4!F,/!2!D/!1!E/!1!F/ !1!E/!2!D/!2!^C/!2!D/ !3!G,/!2!D/!3!A,/!2!D/ | %30
 !3!B,/!2!D/!1!E/!1!F/ !1!E/!2!D/!2!^C/!2!D/ !3!B,/!2!D/!3!A,/!2!D/ | %31
 !3!^G,/!2!D/!1!E/!1!F/ !1!E/!2!D/!2!^C/!2!D/ !3!A,/!2!D/!3!A,/!2!C/ | %32
 !1!E/!2!=B,/!3!G,/!2!B,/ !4!E,/!3!G,/!5!=B,,/!4!E,/ !6!E,,2 :| %33

